packages/foundations/assets/icons/functional/images/logos/s_bahn_20_inverted.svg

<svg width="20" height="20" viewBox="0 0 20 20" fill="none" xmlns="http://www.w3.org/2000/svg">
<g clip-path="url(#clip0_2212_4625)">
<path fill-rule="evenodd" clip-rule="evenodd" d="M9.61195 4.37504C7.73895 4.37504 5.65295 5.56504 5.65295 7.77504C5.65295 9.74304 6.99895 10.463 8.43595 10.919C9.05095 11.11 9.40595 11.197 10.233 11.439C11.149 11.733 11.835 12.107 11.835 12.922C11.835 13.569 11.011 14.176 9.98695 14.176C8.39695 14.176 6.68995 13.21 5.73995 11.771V14.021C6.70195 14.913 8.46295 15.625 9.98695 15.625C12.722 15.625 14.347 13.608 14.347 11.875C14.347 9.96604 13.105 9.26904 11.726 8.85504C11.1774 8.70831 10.6274 8.56731 10.076 8.43204C8.95995 8.14504 8.06295 7.79204 8.06295 6.80604C8.06295 6.18604 8.61295 5.65604 9.57395 5.65604C11.174 5.65604 12.718 6.53304 13.684 7.67204V5.79804C12.5307 4.87009 11.0921 4.36759 9.61195 4.37504Z" fill="#1A1C1F"/>
</g>
<defs>
<clipPath id="clip0_2212_4625">
<rect width="20" height="20" fill="white"/>
</clipPath>
</defs>
</svg>

<svg xmlns="http://www.w3.org/2000/svg" width="20" height="20" fill="none"><g clip-path="url(#a)"><path fill="#1A1C1F" fill-rule="evenodd" d="M9.612 4.375c-1.873 0-3.96 1.19-3.96 3.4 0 1.968 1.347 2.688 2.784 3.144.615.191.97.278 1.797.52.916.294 1.602.668 1.602 1.483 0 .647-.824 1.254-1.848 1.254-1.59 0-3.297-.966-4.247-2.405v2.25c.962.892 2.723 1.604 4.247 1.604 2.735 0 4.36-2.017 4.36-3.75 0-1.909-1.242-2.606-2.621-3.02a82 82 0 0 0-1.65-.423c-1.116-.287-2.013-.64-2.013-1.626 0-.62.55-1.15 1.51-1.15 1.601 0 3.145.877 4.111 2.016V5.798a6.45 6.45 0 0 0-4.072-1.423" clip-rule="evenodd"/></g><defs><clipPath id="a"><path fill="#fff" d="M0 0h20v20H0z"/></clipPath></defs></svg>
